src/assets/icons/ic-capabilities.svg

<?xml version="1.0" encoding="UTF-8"?>
<svg width="24px" height="24px" viewBox="0 0 24 24" version="1.1" xmlns="http://www.w3.org/2000/svg" xmlns:xlink="http://www.w3.org/1999/xlink">
    <!-- Generator: sketchtool 51.2 (57519) - http://www.bohemiancoding.com/sketch -->
    <title>1B0606F8-4656-4982-B2D6-40FB1084614D</title>
    <desc>Created with sketchtool.</desc>
    <defs></defs>
    <g id="Icons" stroke="none" stroke-width="1" fill="none" fill-rule="evenodd">
        <g id="UI-Icons" transform="translate(-285.000000, -518.000000)" fill="#000000" fill-rule="nonzero">
            <g id="ic-capabilities" transform="translate(285.000000, 518.000000)">
                <path class="svg-content" fill="#727272" d="M20.0630087,19.5 L19,19.5 C18.1853204,19.5 17.5,18.9003446 17.5,18.125 L17.5,12.5 L14.9339143,12.5 C14.4450222,16.1693595 11.3030768,19 7.5,19 C3.35786438,19 0,15.6421356 0,11.5 C0,7.35786438 3.35786438,4 7.5,4 C11.6421356,4 15,7.35786438 15,11.5 L17.5,11.5 L17.5,5.875 C17.5,5.09965536 18.1853204,4.5 19,4.5 L20.0630087,4.5 C20.2850301,3.63738639 21.0680803,3 22,3 C23.1045695,3 24,3.8954305 24,5 C24,6.1045695 23.1045695,7 22,7 C21.0680803,7 20.2850301,6.36261361 20.0630087,5.5 L19,5.5 C18.7101101,5.5 18.5,5.68384633 18.5,5.875 L18.5,11.5 L20.0630087,11.5 C20.2850301,10.6373864 21.0680803,10 22,10 C23.1045695,10 24,10.8954305 24,12 C24,13.1045695 23.1045695,14 22,14 C21.0680803,14 20.2850301,13.3626136 20.0630087,12.5 L18.5,12.5 L18.5,18.125 C18.5,18.3161537 18.7101101,18.5 19,18.5 L20.0630087,18.5 C20.2850301,17.6373864 21.0680803,17 22,17 C23.1045695,17 24,17.8954305 24,19 C24,20.1045695 23.1045695,21 22,21 C21.0680803,21 20.2850301,20.3626136 20.0630087,19.5 Z M11.3933756,8.7829992 L9.49858792,10.6851539 L7.65075078,10.3496769 L7.31874374,8.50119849 L9.21353138,6.59904375 C8.78762336,6.17298793 8.18062059,5.97841125 7.73123733,6.00189465 C7.27850046,6.02537804 6.31266181,6.28034058 5.56480758,7.07542113 C4.84042859,7.84030875 4.07915993,9.26608611 4.75323482,10.8495377 C4.83372137,11.0407596 4.92426875,11.2923674 4.65598023,11.560749 C4.52265648,11.6924725 4.3997936,11.9450774 2.66304308,13.5824216 C0.926292558,15.2197657 2.97390582,16.9987784 4.54276179,15.3306391 C6.11161777,13.6624998 6.2894822,13.4862742 6.44009886,13.3387772 C6.7251554,13.0603313 6.98002949,13.1542649 7.15106342,13.2414889 C8.34494731,13.8587666 10.0452258,13.3220034 10.9272243,12.4396988 C11.8092228,11.5573942 11.9701959,10.7052826 11.9970247,10.2691624 C12.0238536,9.83639706 11.8729413,9.26273134 11.3933756,8.7829992 Z" id="Combined-Shape"></path>
            </g>
        </g>
    </g>
</svg>

<svg xmlns="http://www.w3.org/2000/svg" width="24" height="24" viewBox="0 0 24 24">
  <path class="svg-content" fill="#727272" d="M20.063 19.5H19c-.815 0-1.5-.6-1.5-1.375V12.5h-2.566A7.501 7.501 0 0 1 0 11.5a7.5 7.5 0 0 1 15 0h2.5V5.875c0-.775.685-1.375 1.5-1.375h1.063a2 2 0 1 1 0 1H19c-.29 0-.5.184-.5.375V11.5h1.563a2 2 0 1 1 0 1H18.5v5.625c0 .191.21.375.5.375h1.063a2 2 0 1 1 0 1zm-8.67-10.717L9.5 10.685 7.65 10.35 7.319 8.5 9.214 6.6c-.426-.426-1.033-.62-1.483-.597-.452.023-1.418.278-2.166 1.073-.725.765-1.486 2.191-.812 3.775.08.19.171.442-.097.71-.133.132-.256.385-1.993 2.022-1.737 1.638.31 3.417 1.88 1.749 1.569-1.669 1.746-1.845 1.897-1.992.285-.279.54-.185.711-.098 1.194.618 2.894.081 3.776-.801.882-.883 1.043-1.735 1.07-2.17.027-.434-.124-1.007-.604-1.487z"/>
</svg>
